usr/share/icons/biglinux-icons-material-dark/symbolic/actions/format-justify-center.svg

<svg xmlns="http://www.w3.org/2000/svg" viewBox="0 0 16 16">
<defs id="defs3051">
<style id="current-color-scheme" type="text/css">
.ColorScheme-Contrast{color:#dedede}
</style>
</defs>
<path d="M2 2v1h12V2zm2 2v1h8V4zM2 7v1h12V7zm3 2v1h6V9zm-3 3v1h12v-1zm4 2v1h4v-1z" class="ColorScheme-Contrast" style="fill:currentColor;fill-opacity:1;stroke:none"/>
</svg>

<svg xmlns="http://www.w3.org/2000/svg" viewBox="0 0 16 16">
  <defs id="defs3051">
    <style type="text/css" id="current-color-scheme">
      .ColorScheme-Text {
        color:#dedede;
      }
      </style>
  </defs>
 <path style="fill:currentColor;fill-opacity:1;stroke:none" 
       d="M 2 2 L 2 3 L 14 3 L 14 2 L 2 2 z M 4 4 L 4 5 L 12 5 L 12 4 L 4 4 z M 2 7 L 2 8 L 14 8 L 14 7 L 2 7 z M 5 9 L 5 10 L 11 10 L 11 9 L 5 9 z M 2 12 L 2 13 L 14 13 L 14 12 L 2 12 z M 6 14 L 6 15 L 10 15 L 10 14 L 6 14 z "
     class="ColorScheme-Text"
     />
</svg>
